images/color/svg/1f192.svg

<svg id="emoji" viewBox="0 0 72 72" xmlns="http://www.w3.org/2000/svg">
  <g id="color">
    <path fill="#d0cfce" stroke="none" stroke-miterlimit="10" stroke-width="2" d="M59.0349,60H12.9651 C12.4343,60,12,59.5657,12,59.0349V12.9651C12,12.4343,12.4343,12,12.9651,12h46.0698C59.5657,12,60,12.4343,60,12.9651v46.0698 C60,59.5657,59.5657,60,59.0349,60z"/>
  </g>
  <g id="hair"/>
  <g id="skin"/>
  <g id="skin-shadow"/>
  <g id="line">
    <path fill="none" stroke="#000000" stroke-miterlimit="10" stroke-width="2" d="M59.0349,60H12.9651 C12.4343,60,12,59.5657,12,59.0349V12.9651C12,12.4343,12.4343,12,12.9651,12h46.0698C59.5657,12,60,12.4343,60,12.9651v46.0698 C60,59.5657,59.5657,60,59.0349,60z"/>
    <polyline fill="none" stroke="#000000" stroke-linecap="round" stroke-linejoin="round" stroke-miterlimit="10" stroke-width="2" points="47.9463,32.0267 47.9463,40.0267 51.3748,40.0267"/>
    <path fill="none" stroke="#000000" stroke-linecap="round" stroke-linejoin="round" stroke-miterlimit="10" stroke-width="2" d="M31.9552,40.0267L31.9552,40.0267c-1.5779,0-2.8571-1.2792-2.8571-2.8571v-2.2857c0-1.5779,1.2792-2.8571,2.8571-2.8571l0,0 c1.5779,0,2.8571,1.2792,2.8571,2.8571v2.2857C34.8123,38.7475,33.5331,40.0267,31.9552,40.0267z"/>
    <path fill="none" stroke="#000000" stroke-linecap="round" stroke-linejoin="round" stroke-miterlimit="10" stroke-width="2" d="M41.0847,40.0267L41.0847,40.0267c-1.5779,0-2.8571-1.2792-2.8571-2.8571v-2.2857c0-1.5779,1.2792-2.8571,2.8571-2.8571l0,0 c1.5779,0,2.8571,1.2792,2.8571,2.8571v2.2857C43.9419,38.7475,42.6627,40.0267,41.0847,40.0267z"/>
    <path fill="none" stroke="#000000" stroke-linecap="round" stroke-linejoin="round" stroke-miterlimit="10" stroke-width="2" d="M26.3775,39.3077c-0.5044,0.4473-1.168,0.719-1.8952,0.719l0,0c-1.5779,0-2.8571-1.2792-2.8571-2.8571v-2.2857v2.2857v-2.2857 c0-1.5779,1.2792-2.8571,2.8571-2.8571l0,0c0.7272,0,1.3909,0.2717,1.8952,0.7191"/>
  </g>
</svg>

<svg viewBox="0 0 72 72" xmlns="http://www.w3.org/2000/svg"><path fill="#d0cfce" d="M59.035 60h-46.07a.968.968 0 0 1-.965-.965v-46.07c0-.53.434-.965.965-.965h46.07c.53 0 .965.434.965.965v46.07c0 .53-.434.965-.965.965z"/><g fill="none" stroke="#000" stroke-miterlimit="10" stroke-width="2"><path d="M59.035 60h-46.07a.968.968 0 0 1-.965-.965v-46.07c0-.53.434-.965.965-.965h46.07c.53 0 .965.434.965.965v46.07c0 .53-.434.965-.965.965z"/><path stroke-linecap="round" stroke-linejoin="round" d="M47.946 32.027v8h3.429m-19.42 0h0a2.857 2.857 0 0 1-2.857-2.857v-2.286a2.857 2.857 0 0 1 2.857-2.857h0a2.857 2.857 0 0 1 2.857 2.857v2.286a2.857 2.857 0 0 1-2.857 2.857zm9.13 0h0a2.857 2.857 0 0 1-2.857-2.857v-2.286a2.857 2.857 0 0 1 2.857-2.857h0a2.857 2.857 0 0 1 2.857 2.857v2.286a2.857 2.857 0 0 1-2.857 2.857zm-14.707-.719a2.847 2.847 0 0 1-1.896.719h0a2.857 2.857 0 0 1-2.857-2.857v-2.286 2.286-2.286a2.857 2.857 0 0 1 2.857-2.857h0c.728 0 1.391.271 1.896.719"/></g></svg>
